icons/svg/telepresence_14.svg

<?xml version="1.0" encoding="UTF-8"?>
<svg width="14px" height="14px" viewBox="0 0 14 14" version="1.1" xmlns="http://www.w3.org/2000/svg" xmlns:xlink="http://www.w3.org/1999/xlink">
    <!-- Generator: Sketch 59.1 (86144) - https://sketch.com -->
    <title>telepresence_14</title>
    <desc>Created with Sketch.</desc>
    <g id="New-Icon" stroke="none" stroke-width="1" fill="none" fill-rule="evenodd">
        <g id="telepresence_14" fill="#171B1F">
            <path d="M13,9.7002 C13,10.1412 12.641,10.5002 12.2,10.5002 L11.875,10.5002 C11.545,9.3832 10.578,8.6192 9.386,8.5172 C10.065,7.8742 10.496,6.9672 10.496,5.9542 C10.496,4.0382 8.931,2.4792 7.008,2.4792 C5.084,2.4792 3.52,4.0382 3.52,5.9542 C3.52,6.9672 3.951,7.8752 4.63,8.5182 C3.449,8.6242 2.49,9.3742 2.144,10.4982 L1.8,10.5002 C1.359,10.5002 1,10.1412 1,9.7002 L1,2.8002 C1,2.3592 1.359,2.0002 1.8,2.0002 L12.2,2.0002 C12.641,2.0002 13,2.3592 13,2.8002 L13,9.7002 Z M7.008,8.4792 C5.636,8.4792 4.52,7.3462 4.52,5.9542 C4.52,4.5892 5.636,3.4792 7.008,3.4792 C8.379,3.4792 9.496,4.5892 9.496,5.9542 C9.496,7.3462 8.379,8.4792 7.008,8.4792 L7.008,8.4792 Z M2.784,12.0002 L3.062,10.8902 C3.066,10.8782 3.062,10.8652 3.064,10.8522 L3.072,10.8542 C3.276,10.0422 4.016,9.4962 4.914,9.4962 L9.118,9.4962 C10.006,9.4962 10.74,10.0422 10.944,10.8552 L10.953,10.8912 L10.954,10.8922 L11.231,12.0002 L2.784,12.0002 Z M12.2,1.0002 L1.8,1.0002 C0.808,1.0002 0,1.8072 0,2.8002 L0,9.7002 C0,10.6922 0.808,11.5002 1.802,11.5002 L1.879,11.4992 L1.751,12.0082 C1.69,12.2472 1.743,12.4962 1.895,12.6922 C2.047,12.8882 2.277,13.0002 2.526,13.0002 L11.49,13.0002 C11.738,13.0002 11.967,12.8882 12.12,12.6932 C12.272,12.4982 12.325,12.2482 12.265,12.0092 L12.137,11.5002 L12.2,11.5002 C13.192,11.5002 14,10.6922 14,9.7002 L14,2.8002 C14,1.8072 13.192,1.0002 12.2,1.0002 L12.2,1.0002 Z" id="fill"></path>
        </g>
    </g>
</svg>

<svg width="14" height="14" xmlns="http://www.w3.org/2000/svg"><path d="M13 9.7c0 .441-.359.8-.8.8h-.325c-.33-1.117-1.297-1.88-2.489-1.983A3.486 3.486 0 007.008 2.48 3.485 3.485 0 003.52 5.954c0 1.013.431 1.921 1.11 2.564-1.181.106-2.14.856-2.486 1.98L1.8 10.5a.801.801 0 01-.8-.8V2.8c0-.44.359-.8.8-.8h10.4c.441 0 .8.36.8.8v6.9zM7.008 8.48c-1.372 0-2.488-1.134-2.488-2.526A2.484 2.484 0 017.008 3.48a2.485 2.485 0 012.488 2.475c0 1.392-1.117 2.525-2.488 2.525zM2.784 12l.278-1.11c.004-.012 0-.025.002-.038l.008.002c.204-.812.944-1.358 1.842-1.358h4.204c.888 0 1.622.546 1.826 1.36l.009.035.001.001.277 1.108H2.784zM12.2 1H1.8C.808 1 0 1.807 0 2.8v6.9c0 .992.808 1.8 1.802 1.8h.077l-.128.508a.79.79 0 00.144.684.792.792 0 00.631.308h8.964a.795.795 0 00.775-.99l-.128-.51h.063c.992 0 1.8-.808 1.8-1.8V2.8c0-.993-.808-1.8-1.8-1.8z" fill="#171B1F" fill-rule="evenodd"/></svg>
